X: 41502
T: Uirchill A' Chreagain
R: waltz
M: 3/4
K: Dmajor
f/g/Tf||d2edGB|A4Bd|e2gTf2e|ddd4|
de/f/ g2Tfe|(fa2)fgTfd|d2edG(B|B)2HA2f/g/Tf|
d2(GAB2)|A4Bd|e2gTf2e|d(GB2)z2|
(ABd2)Tfe|(fa2)fegTf|d2e2d2|d2d4||

